X: 8801
T: Cuckoo, The
R: hornpipe
M: 4/4
K: Gmajor
|:B^ABd cBce|(3dcd (3gfe dBGF|EccB AGFG|(3ABA (3GFE DG,B,D|
BABd cBce|(3dcd ge dBAG|EccB AGFG|1 (3ABA GF G3 A:|2 AGFA G2 ga||
|:bg (3gfg dgBg|bg (3gfg dgBg|c'a (3a^ga fada|c'a (3a#ga fada|
bg (3gfg dgBg|bg (3gfg dgBg|(3aba (3gag (3fgf (3efe|1 (3ded ce dega:|2 (3ded ef g4||

